icon-svg/ring-floodlight.svg

<svg xmlns="http://www.w3.org/2000/svg" viewBox="0 0 24 24"><path fill="#44739e" d="M9.804 11.863c2.565-.144 2.476-.232 2.908-.442l2.111-1.216c.165-.188.232-.265-2.322-.022-1.846.166-1.813.243-2.034.354l-2.27 1.226c-.638.31.523.166 1.607.1M8.93 8.557a1.87 1.87 0 0 1-1.017.354v.53c.371-.152 2.45-1.167 2.164-2.373l.644-.191v-.785l.055-.132.056-.188.132-.21.509-.731-1.776.575.276.543.111.376v.386l-.036.206c0-.187-.58-.568-1.257-.769a2.3 2.3 0 0 0-1.538.1c.023.055.155.089.155.2.624.12 1.796-.509 2.613.469l.019.006v.01l.006.006-.014.078c0 .02-.007.038-.008.057v.015c-.553.531-1.846.409-2.179.531l.101.279c0 .2 1.007.055 1.537-.276a2.3 2.3 0 0 0 .514-.383q.002.031-.008.063c-.4 1-1.555.775-2.041 1.033v.3c0 .2.922-.056 1.501-.4a1.7 1.7 0 0 1-.519.321m1.087-1.642a3.22 3.22 0 0 0-2.392-.116l.078.077.077.123c0 .066.333.077 1.338-.1l.906.116c0-.028.011-.055.01-.084ZM5.596 4.422c-.685-.3-3.596.6-3.596.6.019.155.04.31.055.51a4 4 0 0 0 .147.816 6.4 6.4 0 0 0 1.101 2.375 3.7 3.7 0 0 0 2.012 1.294 5.6 5.6 0 0 0 .873.265h.476l.585-.32.376-.254a6.45 6.45 0 0 0-.32-2.986 5.3 5.3 0 0 0-1.709-2.3M6.863 9.9c-2.056-.452-2.268-.663-3.001-1.535a7.2 7.2 0 0 1-1.523-3.401C4.152 4.906 8.197 7.292 6.863 9.9m6.777 11.659a2.56 2.56 0 0 0 1.813-1.316l-4.224.1a2.39 2.39 0 0 0 2.411 1.216m6.634-17.534-.93-.2c.941.475 1.946 2.487 1.438 5.727-.431 2.73-3.063 4.588-4.245 4.588-.277.011.807.188 1.293.177 1.68.022 3.726-2.61 3.892-3.715.408-1.857.663-5.583-1.448-6.577m-5.109 6.136-.243.155-.232.143-1.4.818-.387.243-.309.144-.221.066-.232.067-.355.055h-.166l-.807.077-2.089.133h-.689v.088l.254.995 1.5 5.649.088.188h3.25l.7-.011.155-.009h.145l.125-.044.309-.111.21-.1.343-.232.464-.321 1.107-.885.121-.111-1.641-7.058Zm-4.919 8.028-1.293-4.953h-.075l2.329-.091 1.25 5.044Zm-.067-4.037c-1.083.431-.409 2.409.719 2.31.552-.155.718-.63.552-1.26s-.563-1.139-1.271-1.05m.653 2.045a1.11 1.11 0 0 1-.929-.818c-.11-.487.022-.873.343-.984.486-.066.829.4.95.917s.011.796-.364.889Zm3.637 2.963-.453.144-.365.077-.508.044-3.052-.033.785.641.132.066 4.544-.11.221-.022.111-.033.055-.067.055-.11.675-2.156-1.902 1.415Zm-3.972-4.113c-.122.011-.155.133-.133.3.044.364.553.331.409-.067a.28.28 0 0 0-.276-.233m-3.59-9.43c.033.055.177.089.177.2a11 11 0 0 0 1.515-.1 1.93 1.93 0 0 1 1.459.685c.066-.166-.63-.663-1.426-.884a2.77 2.77 0 0 0-1.725.099m12.072-.94.12.321.088.31v.177l.21-.192.188-.409.056-.143v-.364l-.266-.343-.576-.762.025.3-.064.288-.14.244.121.2Zm-.121-.752.077-.3.376.464.254.331v.2l-.022.108-.045.133-.112.27-.1.144-.094-.343-.128-.325-.229-.372-.053-.084Zm-2.343 9.564c1.348-.919.873-2.974-1.107-3.129l.067.232a1.7 1.7 0 0 1 1.04 2.897m-5.496-7.253v-.044l-.038.236c-.323 1.963 2.427 3.101 4.107 3.445a3.55 3.55 0 0 0 2.421-.409 3.517 3.517 0 0 0-.154-6.136s-2.433-1.238-5.451 1.548a3.8 3.8 0 0 0-.8 1.101Zm.431-.387c.542-.819.742-.819 1.107-.962a8.2 8.2 0 0 1 2.387 0 5.26 5.26 0 0 1 2.532.83 2.15 2.15 0 0 1 1.106 1.845 2.86 2.86 0 0 1-3.03 2.101 6.3 6.3 0 0 1-3.5-1.493c-.288-.342-.796-.873-.83-1.315v-.343l.049-.276c.047-.11.135-.276.179-.387m6.999-1.946a.973.973 0 0 0-.984-1.47 1.1 1.1 0 0 0-.707.431l.961.442Zm-2.908 7.032.631 2.52a1.459 1.459 0 0 0-.631-2.52m3.858-5.163c-.044.155 0 .11 0 .409v.984a5 5 0 0 1-.066.508 4 4 0 0 1-.133.409 3 3 0 0 1-.408.641 4 4 0 0 1-.31.409 3.5 3.5 0 0 1-.486.421 3.3 3.3 0 0 1-.752.42 2 2 0 0 1-.508.166 2.5 2.5 0 0 1-.52 0 5.4 5.4 0 0 0-.863 0 2.8 2.8 0 0 1 1.301.42 2 2 0 0 1 .476.376 1.9 1.9 0 0 1 .309.685 1.56 1.56 0 0 1 .055.718 1.5 1.5 0 0 1-.21.586 2.5 2.5 0 0 1-.453.62 3 3 0 0 1-.4.332 5 5 0 0 0 1.161-.421 6.1 6.1 0 0 0 2.792-4.146 7.3 7.3 0 0 0 .066-2.531 7 7 0 0 0-.741-2.322 1 1 0 0 1 .066.508 1.2 1.2 0 0 1-.154.453c-.111.2-.177.2-.222.355M13.176 9.9h1.171a11 11 0 0 1-1.238-.501v.211ZM6.409 4.765a16 16 0 0 0 1.659-.1 2.2 2.2 0 0 1 1.614.685c.066-.177-.7-.685-1.569-.895a3.54 3.54 0 0 0-1.901.11c.032.045.197.079.197.2m2.035.188a2.95 2.95 0 0 0-1.736.11c.033.045.177.078.177.2a13 13 0 0 0 1.515-.1 2 2 0 0 1 1.47.675c.055-.166-.619-.675-1.426-.885"/></svg>

<svg xmlns="http://www.w3.org/2000/svg" fill="#44739e" width="24" height="24" version="1.1" viewBox="0 0 24 24"><path d="m 9.807,11.863 c 2.564,-0.144 2.475,-0.232 2.907,-0.442 l 2.111,-1.216 c 0.165,-0.188 0.232,-0.265 -2.322,-0.022 -1.845,0.166 -1.812,0.243 -2.033,0.354 L 8.2,11.763 c -0.637,0.31 0.523,0.166 1.607,0.1 z M 8.933,8.558 A 1.871,1.871 0 0 1 7.917,8.912 v 0.53 C 8.287,9.29 10.366,8.275 10.08,7.069 L 10.724,6.878 V 6.093 L 10.779,5.961 10.835,5.773 10.967,5.563 11.476,4.833 9.7,5.408 9.976,5.95 10.087,6.326 v 0.386 l -0.036,0.206 c 0,-0.187 -0.58,-0.568 -1.257,-0.769 a 2.309,2.309 0 0 0 -1.537,0.1 c 0.023,0.055 0.155,0.089 0.155,0.2 0.623,0.12 1.795,-0.509 2.612,0.469 l 0.019,0.006 v 0.01 l 0.006,0.006 -0.014,0.078 v 0 c 0,0.02 -0.007,0.038 -0.008,0.057 v 0.015 0 0 C 9.474,7.621 8.181,7.499 7.849,7.621 L 7.95,7.9 c 0,0.2 1.006,0.055 1.536,-0.276 A 2.259,2.259 0 0 0 10,7.241 c 0,0.021 0,0.042 -0.008,0.063 -0.4,1 -1.555,0.775 -2.04,1.033 v 0.3 c 0,0.2 0.921,-0.056 1.5,-0.4 A 1.662,1.662 0 0 1 8.933,8.558 Z M 10.02,6.916 A 3.222,3.222 0 0 0 7.629,6.8 L 7.707,6.877 7.784,7 c 0,0.066 0.332,0.077 1.337,-0.1 l 0.906,0.116 c 0,-0.028 0.011,-0.055 0.01,-0.084 C 10.032,6.926 10.026,6.922 10.02,6.916 Z M 5.6,4.424 c -0.685,-0.3 -3.595,0.6 -3.595,0.6 0.019,0.155 0.04,0.31 0.055,0.509 a 4.052,4.052 0 0 0 0.147,0.816 6.394,6.394 0 0 0 1.101,2.375 3.707,3.707 0 0 0 2.011,1.293 5.591,5.591 0 0 0 0.873,0.265 H 6.668 L 7.253,9.962 7.629,9.708 A 6.445,6.445 0 0 0 7.309,6.723 5.31,5.31 0 0 0 5.6,4.424 Z M 6.867,9.9 C 4.811,9.449 4.599,9.238 3.867,8.366 A 7.2,7.2 0 0 1 2.344,4.966 C 4.156,4.908 8.2,7.293 6.867,9.9 Z m 6.775,11.656 a 2.556,2.556 0 0 0 1.813,-1.315 l -4.223,0.1 a 2.389,2.389 0 0 0 2.41,1.215 z m 6.632,-17.529 -0.929,-0.2 c 0.94,0.475 1.945,2.486 1.437,5.725 -0.431,2.73 -3.062,4.587 -4.244,4.587 -0.277,0.011 0.807,0.188 1.293,0.177 1.68,0.022 3.725,-2.609 3.891,-3.714 0.408,-1.856 0.663,-5.581 -1.448,-6.575 z m -5.107,6.134 -0.243,0.155 -0.232,0.143 -1.4,0.818 -0.387,0.243 -0.309,0.144 -0.221,0.066 -0.232,0.067 -0.354,0.055 h -0.166 l -0.807,0.077 -2.089,0.133 H 8.038 v 0.088 l 0.254,0.995 v 0 0 l 1.5,5.647 0.088,0.188 h 3.249 l 0.7,-0.011 0.155,-0.009 h 0.145 l 0.125,-0.044 0.309,-0.111 0.21,-0.1 0.343,-0.232 0.464,-0.321 1.106,-0.884 0.121,-0.111 -1.64,-7.057 z M 10.249,18.187 8.956,13.236 H 8.881 l 2.329,-0.091 1.249,5.042 z m -0.067,-4.036 c -1.083,0.431 -0.409,2.409 0.719,2.31 0.552,-0.155 0.718,-0.63 0.552,-1.26 -0.166,-0.63 -0.563,-1.139 -1.271,-1.05 z m 0.653,2.045 A 1.107,1.107 0 0 1 9.906,15.378 c -0.11,-0.487 0.022,-0.873 0.343,-0.984 0.486,-0.066 0.829,0.4 0.95,0.917 0.121,0.517 0.011,0.796 -0.364,0.889 z m 3.636,2.962 -0.453,0.144 -0.365,0.077 -0.508,0.044 -3.051,-0.033 0.785,0.641 0.132,0.066 4.543,-0.11 0.221,-0.022 0.111,-0.033 0.055,-0.067 0.055,-0.11 0.674,-2.156 -1.901,1.415 z M 10.5,15.046 c -0.122,0.011 -0.155,0.133 -0.133,0.3 0.044,0.364 0.553,0.331 0.409,-0.067 A 0.282,0.282 0 0 0 10.5,15.046 Z M 6.911,5.618 c 0.033,0.055 0.177,0.089 0.177,0.2 a 11.278,11.278 0 0 0 1.514,-0.1 1.933,1.933 0 0 1 1.459,0.685 C 10.127,6.237 9.431,5.74 8.635,5.519 A 2.772,2.772 0 0 0 6.911,5.618 Z M 18.98,4.679 19.1,5 19.188,5.31 v 0.176 l 0.21,-0.191 0.188,-0.409 0.056,-0.143 V 4.379 L 19.376,4.036 18.8,3.274 l 0.025,0.3 -0.064,0.288 -0.14,0.244 0.121,0.2 z m -0.121,-0.752 0.077,-0.3 0.376,0.464 0.254,0.331 v 0.2 L 19.544,4.73 19.499,4.863 19.387,5.133 19.287,5.277 19.193,4.934 19.065,4.609 18.836,4.237 18.783,4.153 Z m -2.343,9.561 C 17.864,12.57 17.389,10.515 15.41,10.36 l 0.067,0.232 a 1.7,1.7 0 0 1 1.039,2.896 z M 11.022,6.237 V 6.193 l -0.038,0.236 c -0.323,1.963 2.426,3.1 4.106,3.444 A 3.552,3.552 0 0 0 17.51,9.465 3.516,3.516 0 0 0 17.356,3.33 c 0,0 -2.432,-1.238 -5.449,1.548 a 3.768,3.768 0 0 0 -0.8,1.1 z M 11.453,5.85 c 0.542,-0.818 0.741,-0.818 1.106,-0.961 a 8.16,8.16 0 0 1 2.387,0 5.263,5.263 0 0 1 2.531,0.829 2.145,2.145 0 0 1 1.106,1.845 2.862,2.862 0 0 1 -3.029,2.1 6.319,6.319 0 0 1 -3.5,-1.492 C 11.767,7.829 11.259,7.298 11.225,6.856 V 6.513 L 11.274,6.237 C 11.321,6.127 11.409,5.961 11.453,5.85 Z M 18.45,3.905 a 0.973,0.973 0 0 0 -0.984,-1.47 1.1,1.1 0 0 0 -0.707,0.431 l 0.961,0.442 z m -2.907,7.03 0.63,2.52 a 1.459,1.459 0 0 0 -0.63,-2.52 z M 19.4,5.773 c -0.044,0.155 0,0.11 0,0.409 v 0.984 a 4.834,4.834 0 0 1 -0.066,0.508 4.01,4.01 0 0 1 -0.133,0.409 2.867,2.867 0 0 1 -0.408,0.641 3.725,3.725 0 0 1 -0.31,0.409 3.472,3.472 0 0 1 -0.486,0.42 3.245,3.245 0 0 1 -0.752,0.42 2.114,2.114 0 0 1 -0.508,0.166 2.51,2.51 0 0 1 -0.52,0 5.393,5.393 0 0 0 -0.862,0 2.775,2.775 0 0 1 1.3,0.42 2.01,2.01 0 0 1 0.476,0.376 1.856,1.856 0 0 1 0.309,0.685 1.559,1.559 0 0 1 0.055,0.718 1.5,1.5 0 0 1 -0.21,0.586 2.485,2.485 0 0 1 -0.453,0.619 3.17,3.17 0 0 1 -0.4,0.332 5.038,5.038 0 0 0 1.161,-0.42 A 6.1,6.1 0 0 0 20.384,9.31 7.3,7.3 0 0 0 20.45,6.779 7.027,7.027 0 0 0 19.71,4.458 1.025,1.025 0 0 1 19.776,4.966 1.178,1.178 0 0 1 19.622,5.419 C 19.511,5.618 19.445,5.618 19.4,5.773 Z M 13.178,9.9 h 1.171 A 10.665,10.665 0 0 1 13.111,9.4 V 9.61 Z M 6.413,4.767 a 16.105,16.105 0 0 0 1.658,-0.1 2.209,2.209 0 0 1 1.614,0.685 C 9.751,5.175 8.985,4.667 8.116,4.457 a 3.541,3.541 0 0 0 -1.9,0.11 c 0.032,0.045 0.197,0.079 0.197,0.2 z m 2.034,0.188 a 2.946,2.946 0 0 0 -1.735,0.11 c 0.033,0.045 0.177,0.078 0.177,0.2 a 13.224,13.224 0 0 0 1.514,-0.1 1.988,1.988 0 0 1 1.47,0.674 C 9.928,5.673 9.254,5.165 8.447,4.955 Z"/></svg>
